MonoIcons/scalable/status/network-cellular-2g-symbolic.svg

<?xml version="1.0" encoding="UTF-8"?>
<svg height="16px" viewBox="0 0 16 16" width="16px" xmlns="http://www.w3.org/2000/svg">
    <path d="m 3 0 c -1.660156 0 -3 1.339844 -3 3 v 10 c 0 1.660156 1.339844 3 3 3 h 10 c 1.660156 0 3 -1.339844 3 -3 v -10 c 0 -1.660156 -1.339844 -3 -3 -3 z m 1 3 h 1 s 0.457031 -0.015625 0.949219 0.230469 c 0.488281 0.246093 1.050781 0.9375 1.050781 1.769531 v 2 c 0 0.214844 -0.070312 0.425781 -0.199219 0.601562 l -2.550781 3.398438 h 2.75 v 2 h -5 v -2 c 0 -0.214844 0.070312 -0.425781 0.199219 -0.601562 l 2.800781 -3.730469 v -1.667969 h -1 v 2 h -2 v -2 c 0 -0.832031 0.5625 -1.523438 1.050781 -1.769531 c 0.492188 -0.246094 0.949219 -0.230469 0.949219 -0.230469 z m 6 0 h 2 c 0.832031 0 1.523438 0.5625 1.769531 1.050781 c 0.246094 0.492188 0.230469 0.949219 0.230469 0.949219 v 1 h -2 v -1 h -2 v 6 h 2 v -2 h -1 v -2 h 3 v 4 s 0.015625 0.457031 -0.230469 0.949219 c -0.246093 0.488281 -0.9375 1.050781 -1.769531 1.050781 h -2 s -0.457031 0.015625 -0.949219 -0.230469 c -0.488281 -0.246093 -1.050781 -0.9375 -1.050781 -1.769531 v -6 s -0.015625 -0.457031 0.230469 -0.949219 c 0.246093 -0.488281 0.9375 -1.050781 1.769531 -1.050781 z m 0 0" fill="#2e3436"/>
</svg>

<svg width="16" height="16" viewBox="0 0 16 16" fill="none" xmlns="http://www.w3.org/2000/svg">
<g clip-path="url(#clip0_231_985)">
<path d="M3 0C1.33984 0 0 1.33984 0 3V13C0 14.6602 1.33984 16 3 16H13C14.6602 16 16 14.6602 16 13V3C16 1.33984 14.6602 0 13 0H3ZM4 3H5C5 3 5.45703 2.98437 5.94922 3.23047C6.4375 3.47656 7 4.16797 7 5V7C7 7.21484 6.92969 7.42578 6.80078 7.60156L4.25 11H7V13H2V11C2 10.7852 2.07031 10.5742 2.19922 10.3984L5 6.66797V5H4V7H2V5C2 4.16797 2.5625 3.47656 3.05078 3.23047C3.54297 2.98437 4 3 4 3V3ZM10 3H12C12.832 3 13.5234 3.5625 13.7695 4.05078C14.0156 4.54297 14 5 14 5V6H12V5H10V11H12V9H11V7H14V11C14 11 14.0156 11.457 13.7695 11.9492C13.5234 12.4375 12.832 13 12 13H10C10 13 9.54297 13.0156 9.05078 12.7695C8.5625 12.5234 8 11.832 8 11V5C8 5 7.98437 4.54297 8.23047 4.05078C8.47656 3.5625 9.16797 3 10 3Z" fill="#2E3436"/>
</g>
<defs>
<clipPath id="clip0_231_985">
<rect width="16" height="16" fill="white"/>
</clipPath>
</defs>
</svg>
